X: 16
T: Tit for Tat
%R: jig
B: "Twenty Four Country Dances for the Year 1780", Thomas Skillern, ed. p.8 #2
F: http://www.vwml.org/browse/browse-collections-dance-tune-books/browse-skillerns1780#
Z: 2014 John Chambers <jc:trillian.mit.edu>
M: 6/8
L: 1/8
K: G
B/c/ |\
d>ed dBd | ece d2d/B/ |\
G>AG G>AG | gfe d2 :|\
|: d |\
ecA dBG | cEA F2E/D/ |
EFG ABc | dcB HA2 B/c/ |\
d>ed dBd | ece d2D |\
EFG DcB | AGF G2 :|
%%begintext align
%%   Right hands across .|. Left back :|. Lead down the
%% middle up again cast off one Cu. turn your Partner
%% under your Arm & pause, Set all four & Right &
%% Left at top .|: Hands four with the bottom Cu
%% lead thro' the top cast off & turn your Partner :|:
%%endtext

%%sep 1 1 500
%%sep 1 1 500
